X:1
T:The Tree of Life
T:Chester G. Allen
T:The Tree of Life
T:Public Domain
T:Public Domain
C:Chester G. Allen
Z:Public Domain
%%score ( 1 2 ) ( 3 4 )
L:1/8
M:2/4
K:C
V:1 treble 
V:2 treble 
V:3 bass 
V:4 bass 
V:1
 [EG] | [EG]2 [CE][DF] | [EG] [Ec]2 [EG] | ([FA][Ac]) [GB][FA] | [EG]3 [EG] | [Ec]2 [GB][FA] | %6
w: 1.~Our|Fa- ther has|plant- ed a|beau- * ti- ful|tree, Whose|ev- er- green|
w: 2.~Be-|side the pure|riv- er of|crys- * tal it|grows, And|yield- eth its|
w: 3.~The|hand of the|Sav- ior will|wipe * ev- ery|tear, And|ban- ish for-|
 [EG]2 [CE][EG] | ([FA][EG]) [DF]>[CE] | [B,D]3 [FG] | [EG]2 [CE][DF] | [EG]2 [Ec][EG] | %11
w: branch- es His|child- * ren be-|hold; They|walk ’neath its|shade in the|
w: fruit ev- ery|month, * we are|told; Its|leaves for the|heal- ing of|
w: ev- er the|dark- * ness of|night; Sweet|an- thems e-|ter- nal that|
 [FA] [Ac]2 [FA] | [EG]3 [EG] | [FA]2 [FB][Ec] | [Fd]2 [FA]>[Fc] | [FB]2 [Ec]>[Fd] | [Ec]2 || %17
w: ci- ty a-|bove, Whose|gates are of|pearl and whose|streets are of|gold.|
w: na- tions de-|signed, The|na- tions who|dwell in that|ci- ty of|gold.|
w: re- gion shall|fill, The|Lord is its|glo- ry, the|Lord is its|light.|
"^Refrain" [EG][EG] | [Ge]2 [Fd][Ec] | [Fd]>[Fc] [FA]2 | [EG]2 [CE]2 | [EG]2 ([Ec][GB]) | %22
w: |||||
w: |||||
w: |||||
 [FA]2 [GB][Ec] | [EG]2 [Ec]>[Fd] | [Ge]2 [Gd]>[Gc] | [Gd]2 GG | [Ge]2 [Fd][Ec] | [Fd]2 [Fc]>[FA] | %28
w: ||||||
w: ||||||
w: ||||||
 [EG]2 [CE][DF] | [EG]3 [EG] | [FA]2 [FB]>[Ec] | [Fd]2 [FA]>[Fc] | [FB]2 [Ec]>[Fd] | [Ec]3 |] %34
w: ||||||
w: ||||||
w: ||||||
V:2
 x | x4 | x4 | x4 | x4 | x4 | x4 | x4 | x4 | x4 | x4 | x4 | x4 | x4 | x4 | x4 | x2 || x2 | x4 | %19
 x4 | x4 | x4 | x4 | x4 | x4 | x2 GG | x4 | x4 | x4 | x4 | x4 | x4 | x4 | x3 |] %34
V:3
 [C,C] | [C,C]2 [C,G,][C,G,] | [C,G,] [C,G,]2 [C,C] | [F,C]2 [F,C][F,C] | [C,C]3 [C,C] | %5
w: ~|~ ~ ~|~ ~ ~|~ ~ ~|~ ~|
 [C,C]2 [C,C][C,C] | [C,C]2 [C,G,][C,C] | [C,C]2 [B,,G,]>[C,G,] | [G,,G,]3 [G,,B,] | %9
w: ~ ~ ~|~ ~ ~|~ ~ ~|~ ~|
 [C,C]2 [C,G,][C,G,] | [C,G,]2 [C,G,][C,C] | [F,C] [F,C]2 [F,C] | [C,C]3 [C,C] | %13
w: ~ ~ ~|~ ~ ~|~ ~ ~|~ ~|
 [F,C]2 [D,G,][C,G,] | [F,A,]2 [F,C]>[F,A,] | G,2 G,>G, | [C,G,]2 || [C,C][C,C] | %18
w: ~ ~ ~|~ ~ ~|~ ~ ~|eat|of the|
 [C,C]2 [C,G,][C,G,] | [F,A,]>[F,A,] [F,C]2 | [C,C]2 [C,G,]2 | [C,C]2 (C,E,) | %22
w: beau- ti- ful|tree of life,|That stands|in the *|
 [F,C]2 [D,G,][C,G,] | [C,C]2 [C,C]>[C,C] | [C,C]2 [E,C]>[E,C] | [G,B,]2 G,G, | [C,C]2 [C,C][C,C] | %27
w: of the ci-|ty so fair;|We may eat|of its fruit|healed with its|
 [F,A,]2 [F,A,]>[F,C] | [C,C]2 [C,G,][C,G,] | [C,C]3 [C,C] | [F,C]2 [D,G,]>[C,G,] | %31
w: leaves; No hun-|ger, no sick-|ness, no|sor- row is|
 [F,A,]2 [F,C]>[F,A,] | G,2 G,>G, | [C,G,]3 |] %34
w: there. * *|||
V:4
 x | x4 | x4 | x4 | x4 | x4 | x4 | x4 | x4 | x4 | x4 | x4 | x4 | x4 | x4 | G,2 G,>G, | x2 || x2 | %18
w: |||||||||||||||~ We may|||
 x4 | x4 | x4 | x2 C2 | x4 | x4 | x4 | x2 G,G, | x4 | x4 | x4 | x4 | x4 | x4 | G,2 G,>G, | x3 |] %34
w: |||midst||||and be|||||||||

